X: 1
T: Archie Patterson   [A]
C: Nan Main
B: Originally Ours p.179
R: strathspey
Z: 2019 John Chambers <jc:trillian.mit.edu>
M: C
L: 1/8
K: A
E2 |\
"A"C2E2 E2FG | A2E2 E2A2 | "D"F3E F2c2 | "B7"B6 "E7"c2 |\
"D"d2ed "A"c2dc | "E7"B2cB "D"A2F2 | "E7"E3D C2B,2 | "A"A,6 :|
F2 |\
"A"E2A2 ABcd | edcB A2E2 | "D"F3E "B7"F2c2 | "E"B6 c2 |\
"D"defg a2f2 | "A"edcB A2Bc | "B7"d3c B2A2 | "E"GABG "E7"EFGE ||
|:\
"A"A2E2 E2Ac | "E7"B2E2 E2Bd | "A"c2A2 A2ce | "F#m"a6 "E7"E2 |\
"D"F2GA "E7"B2cd | "A"e2fg "D"a2gf | "A"e3f "E7"e2G2 |1 "A"A6 E2 :|2 "A"A4 A2 |]
